app/img/back-arrow.svg

<svg width="53" height="27" viewBox="0 0 53 27" fill="none" xmlns="http://www.w3.org/2000/svg">
<path d="M0.762699 14.6787L9.96679 25.8691C10.2625 26.2272 10.6322 26.4062 11.0018 26.4062C11.3715 26.4062 11.7411 26.2272 12.0368 25.8691C12.6282 25.1529 12.6282 24.0339 12.0368 23.3177L5.34626 15.1711H26.9334C27.7466 15.1711 28.412 14.3654 28.412 13.3806C28.412 12.3959 27.7466 11.5901 26.9334 11.5901H5.34626L12.0368 3.44354C12.6282 2.72735 12.6282 1.60831 12.0368 0.89212C11.4454 0.175934 10.5213 0.175934 9.92984 0.89212L0.725721 12.0825C0.171257 12.8435 0.17127 14.0073 0.762699 14.6787Z" fill="#9A9A9A"/>
<rect width="50" height="4.00171" rx="2.00085" transform="matrix(-1 0 0 1 53 11.3999)" fill="#9A9A9A"/>
</svg>

<svg width="53" height="27" fill="none" xmlns="http://www.w3.org/2000/svg"><path d="M.763 14.679l9.204 11.19c.295.358.665.537 1.035.537.37 0 .74-.179 1.035-.537.591-.716.591-1.835 0-2.551l-6.69-8.147h21.586c.814 0 1.479-.806 1.479-1.79 0-.985-.665-1.79-1.479-1.79H5.346l6.69-8.147c.592-.717.592-1.836 0-2.552-.59-.716-1.515-.716-2.106 0L.726 12.082c-.555.761-.555 1.925.037 2.597z" fill="#9A9A9A"/><rect width="50" height="4.002" rx="2.001" transform="matrix(-1 0 0 1 53 11.4)" fill="#9A9A9A"/></svg>
